icon/ir/mic-check.svg

<svg stroke-width="1.5" viewBox="0 0 24 24" fill="none" xmlns="http://www.w3.org/2000/svg" height="1em" width="1em">
  <path d="M15.5 20.5L17.5 22.5L22.5 17.5" stroke="currentColor" stroke-linecap="round" stroke-linejoin="round"/>
  <rect x="5" y="2" width="6" height="12" rx="3" stroke="currentColor" stroke-width="1.5"/>
  <path d="M1 10V11C1 14.866 4.13401 18 8 18V18V18C11.866 18 15 14.866 15 11V10" stroke="currentColor" stroke-linecap="round" stroke-linejoin="round"/>
  <path d="M8 18V22M8 22H5M8 22H11" stroke="currentColor" stroke-linecap="round" stroke-linejoin="round"/>
</svg>

<svg width="24" height="24" stroke-width="1.5" fill="none" xmlns="http://www.w3.org/2000/svg"><path d="m15.5 20.5 2 2 5-5" stroke="currentColor" stroke-linecap="round" stroke-linejoin="round"/><rect x="5" y="2" width="6" height="12" rx="3" stroke="currentColor"/><path d="M1 10v1a7 7 0 0 0 7 7v0a7 7 0 0 0 7-7v-1M8 18v4m0 0H5m3 0h3" stroke="currentColor" stroke-linecap="round" stroke-linejoin="round"/></svg>
